X: 4342
T: Lady Harriot Montague's Favorite
%R: air, jig
N: This is version 1, for ABC software that doesn't understand voice overlays.
B: Niel Gow & Sons "A Fourth Collection of Strathspey Reels, etc." v.4 p.34 #2
Z: 2022 John Chambers <jc:trillian.mit.edu>
M: 6/8
L: 1/8
Q: "Slow"
K: D
% - - - - - - - - - -
V: 1 staves=2
A |\
Td>ed (fe).f | dBB ~B2d | AFd (B/A/)(G/F/)(E/D/) | Eee ea/>f/g/>e/ ||\
Td>ed (fe)f | ~(d/c/)(d/e/)(f/g/) afd | TB>cd/B/ (AF).G | (Ad).d ~d2 ::
B |\
AFA {c}d2B | AFG A2{c}d | BGF Ee/f/g/f/ | (e/f/).e/.d/.c/.B/ (A/B/).A/.G/.F/.E/ ||\
DFA ~d2A | (~d/c/)(d/e/)(f/g/) afd | TB>cd/B/ (AF).G | (Ad).d Td2 :|
% - - - - - - - - - -
% Voice 2 preserves the staff layout in the book.
V: 2 clef=bass middle=d
z | d3 d3 | G3 g3 | f3 d3 | c3 A2c || d3 d3 | d3 d3 | g3 fde | f3 d2 :: g |
[f3d6] f2g | fde f3 | g2f e2B | .E.F.G .A.B.c || d3 D3 | d3 d'3 | g3 fde | f3 d2 :|
